img/parceiros/handel.svg

<svg width="139" height="42" viewBox="0 0 139 42" fill="none" xmlns="http://www.w3.org/2000/svg">
<g clip-path="url(#clip0_17_256)">
<path d="M23.912 9.05856L19.31 32.8289H12.698L14.378 24.2458H7.256L5.61 32.8289H-1L3.639 9.05856H10.214L8.242 19.0949H15.364L17.338 9.05856H23.913H23.912ZM37.473 32.8289L37.693 27.6461H31.593L29.803 32.8289H22.826L32.214 9.05856H44.267L44.414 32.8289H37.474H37.473ZM35.976 14.8361L33.091 23.2218H37.876L38.277 14.8369H35.976V14.8361ZM72.783 9.05856L68.18 32.8289H61.568L56.967 19.8223L54.483 32.8297H47.87L52.509 9.05856H59.303L63.833 21.2083L66.206 9.05856H72.782H72.783ZM88.208 9.05856C91.398 9.05856 93.675 9.78516 95.038 11.2375C96.037 12.3379 96.535 13.7138 96.535 15.3644C96.535 15.9592 96.475 16.5858 96.354 17.246L94.929 24.6086C94.442 27.095 93.248 29.0875 91.349 30.5844C89.449 32.0813 86.99 32.8289 83.969 32.8289H73.34L77.98 9.05856H88.208ZM85.906 14.2094H83.532L80.939 27.678H84.409C85.553 27.678 86.442 27.4025 87.075 26.8531C87.733 26.2802 88.183 25.3562 88.425 24.0803L89.486 18.6656C89.578 18.2288 89.627 17.787 89.632 17.3443C89.632 15.2527 88.391 14.2086 85.906 14.2086V14.2094ZM116.112 32.8289H97.775L102.416 9.05856H120.753L119.73 14.2094H107.968L107.128 18.6665H116.844L115.822 23.8157H106.105L105.375 27.6788H117.137L116.113 32.8289H116.112ZM136.977 32.8289H120.32L124.96 9.05856H131.535L127.919 27.6788H138L136.977 32.8289ZM72.471 37.0591H136.014L134.029 42H70.486L72.471 37.0591ZM5.95 0H75.45L73.464 4.94088H3.964L5.95 0Z" fill="#9C9C9C"/>
</g>
<defs>
<clipPath id="clip0_17_256">
<rect width="139" height="42" fill="white"/>
</clipPath>
</defs>
</svg>

<svg width="139" height="42" fill="none" xmlns="http://www.w3.org/2000/svg"><g clip-path="url(#a)"><path d="m23.912 9.059-4.602 23.77h-6.612l1.68-8.583H7.256L5.61 32.829H-1l4.639-23.77h6.575L8.242 19.095h7.122l1.974-10.036h6.575-.001Zm13.561 23.77.22-5.183h-6.1l-1.79 5.183h-6.977l9.388-23.77h12.053l.147 23.77H37.473Zm-1.497-17.993-2.885 8.386h4.785l.401-8.385h-2.301ZM72.783 9.06l-4.603 23.77h-6.612l-4.601-13.007-2.484 13.008H47.87l4.639-23.771h6.794l4.53 12.15 2.373-12.15h6.577Zm15.425 0c3.19 0 5.467.726 6.83 2.179.999 1.1 1.497 2.476 1.497 4.126 0 .595-.06 1.222-.181 1.882l-1.425 7.363c-.487 2.486-1.681 4.478-3.58 5.975-1.9 1.497-4.359 2.245-7.38 2.245H73.34l4.64-23.77h10.228Zm-2.302 5.15h-2.374l-2.593 13.469h3.47c1.144 0 2.033-.276 2.666-.825.658-.573 1.108-1.497 1.35-2.773l1.061-5.414c.092-.437.141-.879.146-1.322 0-2.091-1.241-3.135-3.726-3.135Zm30.206 18.62H97.775l4.641-23.77h18.337l-1.023 5.15h-11.762l-.84 4.457h9.716l-1.022 5.15h-9.717l-.73 3.863h11.762l-1.024 5.15h-.001Zm20.865 0H120.32l4.64-23.77h6.575l-3.616 18.62H138l-1.023 5.15Zm-64.506 4.23h63.543L134.029 42H70.486l1.985-4.94ZM5.95 0h69.5l-1.986 4.94h-69.5L5.95 0Z" fill="#9C9C9C"/></g><defs><clipPath id="a"><path fill="#fff" d="M0 0h139v42H0z"/></clipPath></defs></svg>
